web/packages/design/src/ResourceIcon/assets/rds.svg

<svg width="72" height="72" viewBox="0 0 72 72" fill="none" xmlns="http://www.w3.org/2000/svg">
<path d="M4.09668 56.0873L11.5766 64.8532L12.2492 64.0543V7.98594L11.5766 7.13867L4.09668 15.9013V56.0873Z" fill="#1A476F"/>
<path d="M11.5771 64.8533L25.8696 71.999L26.4641 71.0424L26.4738 0.74869L25.8796 0L11.5771 7.12279V64.8533Z" fill="#1F5B98"/>
<path d="M67.9847 15.9013L60.5028 7.13867L59.666 7.40371L59.8322 64.1377L60.5028 64.8532L67.9847 56.0883V15.9013Z" fill="#2D72B8"/>
<path d="M46.2107 71.999L60.5032 64.8533V7.12279L46.2007 0L45.5244 0.915148L45.5341 70.9591L46.2107 71.999Z" fill="#5294CF"/>
<path d="M25.8799 0H46.2003V72H25.8799V0Z" fill="#2D72B8"/>
</svg>

<svg xmlns="http://www.w3.org/2000/svg" width="72" height="72" fill="none" viewBox="0 0 72 72"><path fill="#1a476f" d="m4.097 56.087 7.48 8.766.672-.799V7.986l-.672-.847-7.48 8.762z"/><path fill="#1f5b98" d="M11.577 64.853 25.87 72l.594-.957.01-70.293L25.88 0 11.577 7.123z"/><path fill="#2d72b8" d="M67.985 15.901 60.503 7.14l-.837.265.166 56.734.67.715 7.483-8.765z"/><path fill="#5294cf" d="m46.21 71.999 14.293-7.146V7.123L46.201 0l-.677.915.01 70.044z"/><path fill="#2d72b8" d="M25.88 0H46.2v72H25.88z"/></svg>
